X:109
T:Sonata in D Major Op.1 No.13 - Larghetto
C:Handel, G.F.
M:3/4
L:1/8
Q:1/4=54
K:D
|:A2|d4 ef|g2 fe d2|e4 de|f4 e2|
d4 ef|g2 ag f2|e4 dc|d4:|

